src/lib/packages/icons/src/assets/line/gift.svg

<svg width="24" height="24" viewBox="0 0 24 24" fill="none" xmlns="http://www.w3.org/2000/svg">
<path d="M19.5 6.25H18.4351C18.6291 5.873 18.75 5.452 18.75 5C18.75 3.484 17.517 2.25 16 2.25C15.178 2.25 14.405 2.61599 13.874 3.26099C13.847 3.29499 12.723 4.78898 12 5.75098C11.276 4.78798 10.151 3.29199 10.119 3.25299C9.59502 2.61499 8.822 2.25 8 2.25C6.483 2.25 5.25 3.484 5.25 5C5.25 5.452 5.36994 5.873 5.56494 6.25H4.5C3.26 6.25 2.25 7.259 2.25 8.5V12C2.25 12.414 2.586 12.75 3 12.75H3.25V18C3.25 20.418 4.582 21.75 7 21.75H17C19.418 21.75 20.75 20.418 20.75 18V12.75H21C21.414 12.75 21.75 12.414 21.75 12V8.5C21.75 7.259 20.74 6.25 19.5 6.25ZM20.25 8.5V11.25H12.75V7.75H16H19.5C19.913 7.75 20.25 8.086 20.25 8.5ZM15.0389 4.20697C15.2809 3.91297 15.622 3.75 16 3.75C16.689 3.75 17.25 4.311 17.25 5C17.25 5.689 16.689 6.25 16 6.25H13.502C14.177 5.352 14.9919 4.26797 15.0389 4.20697ZM6.75 5C6.75 4.311 7.311 3.75 8 3.75C8.378 3.75 8.719 3.91198 8.948 4.19098C9.003 4.26198 9.82105 5.35 10.498 6.25H8C7.311 6.25 6.75 5.689 6.75 5ZM3.75 8.5C3.75 8.086 4.087 7.75 4.5 7.75H8H11.25V11.25H3.75V8.5ZM4.75 18V12.75H11.25V20.25H7C5.423 20.25 4.75 19.577 4.75 18ZM19.25 18C19.25 19.577 18.577 20.25 17 20.25H12.75V12.75H19.25V18Z" fill="currentColor"/>
</svg>

<svg xmlns="http://www.w3.org/2000/svg" width="24" height="24" fill="none"><path fill="currentColor" d="M19.5 6.25h-1.065c.194-.377.315-.798.315-1.25A2.753 2.753 0 0 0 16 2.25c-.822 0-1.595.366-2.126 1.011A1542.2 1542.2 0 0 0 12 5.751a997.435 997.435 0 0 0-1.881-2.498A2.734 2.734 0 0 0 8 2.25 2.753 2.753 0 0 0 5.25 5c0 .452.12.873.315 1.25H4.5A2.253 2.253 0 0 0 2.25 8.5V12c0 .414.336.75.75.75h.25V18c0 2.418 1.332 3.75 3.75 3.75h10c2.418 0 3.75-1.332 3.75-3.75v-5.25H21a.75.75 0 0 0 .75-.75V8.5c0-1.241-1.01-2.25-2.25-2.25Zm.75 2.25v2.75h-7.5v-3.5h6.75a.75.75 0 0 1 .75.75Zm-5.211-4.293c.242-.294.583-.457.961-.457.689 0 1.25.561 1.25 1.25S16.689 6.25 16 6.25h-2.498l1.537-2.043ZM6.75 5c0-.689.561-1.25 1.25-1.25.378 0 .719.162.948.441.055.071.873 1.159 1.55 2.059H8c-.689 0-1.25-.561-1.25-1.25Zm-3 3.5a.75.75 0 0 1 .75-.75h6.75v3.5h-7.5V8.5Zm1 9.5v-5.25h6.5v7.5H7c-1.577 0-2.25-.673-2.25-2.25Zm14.5 0c0 1.577-.673 2.25-2.25 2.25h-4.25v-7.5h6.5V18Z"/></svg>
